v2/perps-v2/ui/public/asset-icons/BNB.svg

<svg width="42" height="42" viewBox="0 0 42 42" fill="none" xmlns="http://www.w3.org/2000/svg">
<g clip-path="url(#clip0_1097_26626)">
<path d="M21 42C32.598 42 42 32.598 42 21C42 9.40202 32.598 0 21 0C9.40202 0 0 9.40202 0 21C0 32.598 9.40202 42 21 42Z" fill="#F3BA2F"/>
<path d="M15.9022 18.9052L21 13.8075L26.1004 18.9079L29.0666 15.9416L21 7.875L12.936 15.939L15.9022 18.9052ZM7.875 21L10.8412 18.0337L13.8075 21L10.8412 23.9662L7.875 21ZM15.9022 23.0947L21 28.1925L26.1004 23.0921L29.0666 26.0571L21 34.125L12.936 26.061L12.9321 26.0571L15.9022 23.0947ZM28.1925 21L31.1587 18.0337L34.125 21L31.1587 23.9662L28.1925 21ZM24.0082 20.9974H24.0109V21L21 24.0109L17.9931 21.0052L17.9878 21L17.9931 20.9961L18.5194 20.4684L18.7753 20.2125L21 17.9891L24.0096 20.9987L24.0082 20.9974Z" fill="white"/>
</g>
<defs>
<clipPath id="clip0_1097_26626">
<rect width="42" height="42" fill="white"/>
</clipPath>
</defs>
</svg>

<svg width="42" height="42" fill="none" xmlns="http://www.w3.org/2000/svg"><g clip-path="url(#a)"><path d="M21 42c11.598 0 21-9.402 21-21S32.598 0 21 0 0 9.402 0 21s9.402 21 21 21Z" fill="#F3BA2F"/><path d="M15.902 18.905 21 13.807l5.1 5.1 2.967-2.965L21 7.875l-8.064 8.064 2.966 2.966ZM7.875 21l2.966-2.966L13.807 21l-2.966 2.966L7.875 21Zm8.027 2.095L21 28.193l5.1-5.1 2.967 2.964L21 34.125l-8.064-8.064-.004-.004 2.97-2.962ZM28.192 21l2.967-2.966L34.125 21l-2.966 2.966L28.193 21Zm-4.184-.003h.003V21L21 24.01l-3.007-3.005-.005-.005.005-.004.526-.528.256-.256L21 17.99 24.01 21l-.002-.002Z" fill="#fff"/></g><defs><clipPath id="a"><path fill="#fff" d="M0 0h42v42H0z"/></clipPath></defs></svg>
